X:362
T: TANZ MIR MAL DIE SIEBENSPRUENGE
N: E0992
O: Europa, Mitteleuropa, Deutschland, Westfalen, Soest
R: Tanz - Lied, Reigen, Siebensprung
M: 2/4
L: 1/16
K: G
 | G2B2d2B2 | c2A2B2G2
G2B2d2B2 | c4B4
G2B2d2B2 | c2A2B2G2
G2B2d2B2 | c4B4
A2ABA2AB | A2ABA4
A2ABA2A2 | A2G2F2z
d | B4z2d2 | B4z4

